symbols/web/g_mobiledata/materialsymbolsrounded/g_mobiledata_wght600_20px.svg

<svg xmlns="http://www.w3.org/2000/svg" height="20" width="20"><path d="M7.812 14.167q-.895 0-1.51-.605-.614-.604-.614-1.52V7.958q0-.916.614-1.52.615-.605 1.51-.605h4.605q.416 0 .729.313.312.312.312.729 0 .437-.312.76-.313.323-.729.323H7.812v4.084h3.542v-1h-.896q-.375 0-.666-.292-.292-.292-.292-.688 0-.395.292-.677.291-.281.666-.281h1.854q.459 0 .803.344.343.344.343.781v1.813q0 .916-.604 1.52-.604.605-1.5.605Z"/></svg>

<svg xmlns="http://www.w3.org/2000/svg" height="20" width="20"><path d="M7.812 14.167Q6.917 14.167 6.302 13.562Q5.688 12.958 5.688 12.042V7.958Q5.688 7.042 6.302 6.438Q6.917 5.833 7.812 5.833H12.417Q12.833 5.833 13.146 6.146Q13.458 6.458 13.458 6.875Q13.458 7.312 13.146 7.635Q12.833 7.958 12.417 7.958H7.812Q7.812 7.958 7.812 7.958Q7.812 7.958 7.812 7.958V12.042Q7.812 12.042 7.812 12.042Q7.812 12.042 7.812 12.042H11.354Q11.354 12.042 11.354 12.042Q11.354 12.042 11.354 12.042V11.042H10.458Q10.083 11.042 9.792 10.75Q9.5 10.458 9.5 10.062Q9.5 9.667 9.792 9.385Q10.083 9.104 10.458 9.104H12.312Q12.771 9.104 13.115 9.448Q13.458 9.792 13.458 10.229V12.042Q13.458 12.958 12.854 13.562Q12.25 14.167 11.354 14.167Z"/></svg>
